X: 8710
T: Crowley's
R: reel
M: 4/4
K: Dmajor
A2 Ad B2dB|AD (3FED AD (3FED|A2 Ad B2dB|ABdg fedB:|
f2fa g2fg|eA (3cBA eA (3cBA|f2fa g2fg|afge fdd2|
f2fa g2fg|eA (3cBA eA (3cBA|f2fa g2fg|afge fdd2||

